X:4
T: WER LIEBEN WILL MUSS LEIDEN
N: E0617A
O: Europa, Mitteleuropa, Deutschland, Hessen, Darmstadt
R: Liebes - Lied
M: 6/8
L: 1/16
K: C
G,2 | C4E,2A,4G,2 | G,2F,2z6
B,C | D4F,2A,4G,2 | E,4z6
G,2 | E4D2C4B,2 | B,2A,2z6
A,2 | G,2C2E2F2D2B,2 | C6z4

